Obsidian-SemiLight/actions/24s/audio-volume-high.svg

<svg viewBox="0 0 24 24" xmlns="http://www.w3.org/2000/svg"><path d="m11.988281 4-4.988281 4.9902344v.0097656 1 4 1 .009766l4.988281 4.990234h1.011719v-.402344-15.1953122-.4023438zm2.876953.5371094-.24414.9765625a7 7 0 0 1 4.378906 6.4863281 7 7 0 0 1 -4.380859 6.478516l.24414.974609a8 8 0 0 0 5.136719-7.453125 8 8 0 0 0 -5.134766-7.4628906zm.458985 3.7441406-.539063.8613281a4 4 0 0 1 1.214844 2.8574219 4 4 0 0 1 -1.210938 2.861328l.539063.863281a5 5 0 0 0 1.671875-3.724609 5 5 0 0 0 -1.675781-3.71875zm-11.324219.71875v1 4 1h2v-1-4-1z" fill="#4d4d4d"/></svg>

<svg xmlns="http://www.w3.org/2000/svg" viewBox="0 0 24 24">
  <defs id="defs3051">
    <style type="text/css" id="current-color-scheme">
      .ColorScheme-Text {
        color:#4d4d4d;
      }
      </style>
  </defs>
 <path style="fill:currentColor;fill-opacity:1;stroke:none" 
     d="M 11.988281 4 L 7 8.9902344 L 7 9 L 7 10 L 7 14 L 7 15 L 7 15.009766 L 11.988281 20 L 13 20 L 13 19.597656 L 13 4.4023438 L 13 4 L 11.988281 4 z M 14.865234 4.5371094 L 14.621094 5.5136719 A 7 7 0 0 1 19 12 A 7 7 0 0 1 14.619141 18.478516 L 14.863281 19.453125 A 8 8 0 0 0 20 12 A 8 8 0 0 0 14.865234 4.5371094 z M 15.324219 8.28125 L 14.785156 9.1425781 A 4 4 0 0 1 16 12 A 4 4 0 0 1 14.789062 14.861328 L 15.328125 15.724609 A 5 5 0 0 0 17 12 A 5 5 0 0 0 15.324219 8.28125 z M 4 9 L 4 10 L 4 14 L 4 15 L 6 15 L 6 14 L 6 10 L 6 9 L 4 9 z "
     class="ColorScheme-Text"
     />
</svg>
